X:128 
T:Midwestern Reel*, The
F:file ID: cre.5/128midw
B:CRE5.179 (gan ainm)
M:4/4
Q:180
R:reel
K:Em
B,E~E2 B,E~E2|EDA,D FdAF|GE~E2 BE~E2|FAdA BAGF|
EB,~B,2 EB,~B,2|DA,F,A, DdAF|GE~E2 BE~E2|FdAF GEE2:|
E2de edBd|fdad bdaf|edef gfga|bagf ebaf|
gfed edBd|AFDF EDB,A,|B,E~E2 B,E~E2|FdAF GEE2:|

%%%

